X: 575
T: Acadian Breakdown
R: reel
M: 4/4
K: Dmajor
|:aaaf dfaf|bfgg gfgb|afdf Adfa|gecb afdf|
aaaf dfaf|bfgg gfgb|afdf Adfa|1 gece defg:|2 gece d2||
|:dB|Afff ffdc|Bggg gggB|Afff Adfa|gecb afdf|
Afff ffdc|Bggg gggB|afdf Adfa|1 gece d2:|2 gece defg||

